public/avatar/item1/29.svg

<svg xmlns:xlink="http://www.w3.org/1999/xlink" height="65.4" width="80.15" xmlns="http://www.w3.org/2000/svg"><use height="3.7" transform="translate(22.65 30.6)" width="17.45" xlink:href="#a"/><defs><path d="M7.3 16.8q.9.1 1.15 1.35v.05q.25 1.75-1.8 2.2H6.6q-1.1.2-2.1-1.05l-.05-.05q-.65-.85-1.6-.95l-.05-.05-1.65.15q-.35.25-.9 1.4v.3q-.2-2.1.6-2.7.75-.6 2.2-.2H3q1.4.15 2.3 1.4h.05l1.1.65q.95-.2.95-.95l-.05-.5q-.7-.6-1.25.4.1-1.2 1.05-1.45h.15m-10.75.5 2.2.2q.7.6.6 2.7v-.3q-.6-1.15-.95-1.4l-1.6-.15-.05.05q-1 .1-1.6.95l-.05.05q-1.05 1.25-2.15 1.05-2.1-.45-1.85-2.2v-.05q.25-1.25 1.15-1.35h.2q.9.25 1.05 1.45-.6-1-1.3-.4l-.05.5q0 .75.95.95h.05q.5 0 1.1-.65h.05q.85-1.25 2.3-1.4h-.05" fill-rule="evenodd" transform="translate(8.95 -16.8)" id="a"/></defs></svg>

<?xml version="1.0" encoding="UTF-8" standalone="no"?>
<svg xmlns:xlink="http://www.w3.org/1999/xlink" height="65.4px" width="80.15px" xmlns="http://www.w3.org/2000/svg">
  <g transform="matrix(1.0, 0.0, 0.0, 1.0, 31.6, 13.8)">
    <use height="3.7" transform="matrix(1.0, 0.0, 0.0, 1.0, -8.95, 16.8)" width="17.45" xlink:href="#shape0"/>
  </g>
  <defs>
    <g id="shape0" transform="matrix(1.0, 0.0, 0.0, 1.0, 8.95, -16.8)">
      <path d="M7.3 16.8 Q8.2 16.9 8.45 18.15 L8.45 18.2 Q8.7 19.95 6.65 20.4 L6.6 20.4 Q5.5 20.6 4.5 19.35 L4.45 19.3 Q3.8 18.45 2.85 18.35 L2.8 18.3 1.15 18.45 Q0.8 18.7 0.25 19.85 L0.25 20.15 Q0.05 18.05 0.85 17.45 1.6 16.85 3.05 17.25 L3.0 17.25 Q4.4 17.4 5.3 18.65 L5.35 18.65 6.45 19.3 Q7.4 19.1 7.4 18.35 L7.35 17.85 Q6.65 17.25 6.1 18.25 6.2 17.05 7.15 16.8 L7.3 16.8 M-3.45 17.3 L-1.25 17.5 Q-0.55 18.1 -0.65 20.2 L-0.65 19.9 Q-1.25 18.75 -1.6 18.5 L-3.2 18.35 -3.25 18.4 Q-4.25 18.5 -4.85 19.35 L-4.9 19.4 Q-5.95 20.65 -7.05 20.45 -9.15 20.0 -8.9 18.25 L-8.9 18.2 Q-8.65 16.95 -7.75 16.85 L-7.55 16.85 Q-6.65 17.1 -6.5 18.3 -7.1 17.3 -7.8 17.9 L-7.85 18.4 Q-7.85 19.15 -6.9 19.35 L-6.85 19.35 Q-6.35 19.35 -5.75 18.7 L-5.7 18.7 Q-4.85 17.45 -3.4 17.3 L-3.45 17.3" fill="#000000" fill-rule="evenodd" stroke="none"/>
    </g>
  </defs>
</svg>
